assets/img/braze_icons/arrows-down.svg

<svg fill="none" height="24" viewBox="0 0 24 24" width="24" xmlns="http://www.w3.org/2000/svg"><g fill="#801ed7"><path d="m6 17.5858-2.29289-2.2929c-.39053-.3905-1.02369-.3905-1.41422 0-.39052.3905-.39052 1.0237 0 1.4142l4 4c.39053.3905 1.02369.3905 1.41422 0l3.99999-4c.3905-.3905.3905-1.0237 0-1.4142s-1.0237-.3905-1.4142 0l-2.2929 2.2929v-13.5858c0-.55229-.44771-1-1-1-.55228 0-1 .44771-1 1z"/><path d="m18 12.5858 2.2929-2.2929c.3905-.39053 1.0237-.39053 1.4142 0 .3905.3905.3905 1.0237 0 1.4142l-4 4c-.3905.3905-1.0237.3905-1.4142 0l-4-4c-.3905-.3905-.3905-1.0237 0-1.4142.3905-.39053 1.0237-.39053 1.4142 0l2.2929 2.2929v-8.5858c0-.55229.4477-1 1-1s1 .44771 1 1z"/></g></svg>

<svg width="24" height="24" viewBox="0 0 24 24" fill="none" xmlns="http://www.w3.org/2000/svg">
<path d="M6 17.5858L3.70711 15.2929C3.31658 14.9024 2.68342 14.9024 2.29289 15.2929C1.90237 15.6834 1.90237 16.3166 2.29289 16.7071L6.29289 20.7071C6.68342 21.0976 7.31658 21.0976 7.70711 20.7071L11.7071 16.7071C12.0976 16.3166 12.0976 15.6834 11.7071 15.2929C11.3166 14.9024 10.6834 14.9024 10.2929 15.2929L8 17.5858L8 4C8 3.44771 7.55229 3 7 3C6.44772 3 6 3.44771 6 4L6 17.5858Z" fill="#801ED7"/>
<path d="M18 12.5858L20.2929 10.2929C20.6834 9.90237 21.3166 9.90237 21.7071 10.2929C22.0976 10.6834 22.0976 11.3166 21.7071 11.7071L17.7071 15.7071C17.3166 16.0976 16.6834 16.0976 16.2929 15.7071L12.2929 11.7071C11.9024 11.3166 11.9024 10.6834 12.2929 10.2929C12.6834 9.90237 13.3166 9.90237 13.7071 10.2929L16 12.5858L16 4C16 3.44771 16.4477 3 17 3C17.5523 3 18 3.44771 18 4V12.5858Z" fill="#801ED7"/>
</svg>
